X:86
M:4/4
L:1/4
K:D
D2 A A | F A (B/ d) c/ | d2 z d | B A B A | G/F/ E D2 | z A A G | (F E/) B A/ G | F2 z/ !sintro!B/ d- | d/ c/ B e (d/e/- | e/d//c//B/) B/ A2 !eintro!|]
